src/assets/images/wallet-connect.svg

<svg width="21" height="14" viewBox="0 0 21 14" fill="none" xmlns="http://www.w3.org/2000/svg">
    <path d="M4.59583 3.26691C7.85658 0.0743614 13.1433 0.0743614 16.404 3.26691L16.7965 3.65113C16.9595 3.81076 16.9595 4.06957 16.7965 4.22919L15.454 5.54356C15.3725 5.62338 15.2404 5.62338 15.1588 5.54356L14.6188 5.01482C12.344 2.78762 8.65586 2.78762 6.38108 5.01482L5.80275 5.58106C5.72123 5.66087 5.58906 5.66087 5.50754 5.58106L4.16509 4.26669C4.00206 4.10706 4.00206 3.84826 4.16509 3.68863L4.59583 3.26691ZM19.1804 5.98516L20.3751 7.15495C20.5382 7.31458 20.5382 7.57338 20.3751 7.73301L14.9878 13.0077C14.8248 13.1674 14.5604 13.1674 14.3974 13.0078C14.3974 13.0078 14.3974 13.0078 14.3974 13.0078L10.5738 9.26411C10.533 9.22421 10.4669 9.22421 10.4262 9.26411C10.4262 9.26411 10.4262 9.26411 10.4262 9.26411L6.60263 13.0077C6.4396 13.1674 6.17526 13.1674 6.01222 13.0078C6.01222 13.0078 6.01222 13.0078 6.01222 13.0078L0.62472 7.73294C0.461682 7.57331 0.461682 7.31451 0.62472 7.15488L1.8195 5.98509C1.98254 5.82546 2.24688 5.82546 2.40991 5.98509L6.23358 9.72878C6.27434 9.76869 6.34042 9.76869 6.38118 9.72878C6.38118 9.72878 6.38119 9.72878 6.38119 9.72878L10.2047 5.98509C10.3677 5.82546 10.632 5.82545 10.7951 5.98507C10.7951 5.98508 10.7951 5.98508 10.7951 5.98508L14.6187 9.72878C14.6595 9.76868 14.7256 9.76868 14.7663 9.72878L18.5899 5.98516C18.753 5.82553 19.0173 5.82553 19.1804 5.98516Z" fill="#3B99FC"/>
</svg>

<svg width="21" height="14" fill="none" xmlns="http://www.w3.org/2000/svg"><path d="M4.596 3.267c3.26-3.193 8.547-3.193 11.808 0l.393.384a.403.403 0 0 1 0 .578l-1.343 1.315a.212.212 0 0 1-.295 0l-.54-.53c-2.275-2.226-5.963-2.226-8.238 0l-.578.567a.212.212 0 0 1-.295 0L4.165 4.267a.403.403 0 0 1 0-.578l.43-.422ZM19.18 5.985l1.195 1.17a.403.403 0 0 1 0 .578l-5.387 5.275a.424.424 0 0 1-.59 0l-3.824-3.744a.106.106 0 0 0-.148 0l-3.823 3.744a.424.424 0 0 1-.59 0L.624 7.733a.403.403 0 0 1 0-.578l1.194-1.17a.424.424 0 0 1 .59 0L6.235 9.73c.04.04.106.04.147 0l3.824-3.744a.424.424 0 0 1 .59 0L14.62 9.73c.04.04.107.04.147 0l3.824-3.744a.424.424 0 0 1 .59 0Z" fill="#3B99FC"/></svg>
